frontend/public/svg/Logo.svg

<svg width="120" height="138" viewBox="0 0 120 138" fill="none" xmlns="http://www.w3.org/2000/svg">
<path d="M118.872 0.299276C118.176 -0.0997585 117.311 -0.0997585 116.616 0.299276L1.12808 67.0483C0.432572 67.4474 0 68.1945 0 69.0011C0 69.8076 0.432572 70.5547 1.12808 70.9538L116.616 137.694C116.964 137.898 117.354 138 117.744 138C118.134 138 118.524 137.898 118.872 137.694C119.567 137.295 120 136.548 120 135.742V2.26049C120 1.45393 119.567 0.7068 118.872 0.307766V0.299276ZM115.488 45.8061L27.8626 61.9967L115.488 29.6071V45.7977V45.8061ZM115.488 50.3993V87.6028L14.8346 69.0011L115.488 50.3993ZM115.488 92.196V108.387L27.8626 75.9969L115.488 92.1875V92.196ZM115.488 24.8017L26.056 57.8536L115.488 6.17442V24.8017ZM26.056 80.1486L115.488 113.2V131.828L26.056 80.1486Z" fill="#CBFF00"/>
</svg>

<?xml version="1.0" encoding="UTF-8"?>
<svg id="Layer_1" xmlns="http://www.w3.org/2000/svg" version="1.1" viewBox="0 0 120 138">
  <!-- Generator: Adobe Illustrator 29.8.2, SVG Export Plug-In . SVG Version: 2.1.1 Build 3)  -->
  <defs>
    <style>
      .st0 {
        fill: #dedc00;
      }
    </style>
  </defs>
  <path class="st0" d="M118.9.3c-.7-.4-1.6-.4-2.3,0L1.1,67c-.7.4-1.1,1.1-1.1,2s.4,1.6,1.1,2l115.5,66.7c.3.2.7.3,1.1.3s.8-.1,1.1-.3c.7-.4,1.1-1.1,1.1-2V2.3c0-.8-.4-1.6-1.1-2h0ZM115.5,45.8L27.9,62,115.5,29.6v16.2h0ZM115.5,50.4v37.2L14.8,69l100.7-18.6ZM115.5,92.2v16.2L27.9,76l87.6,16.2h0ZM115.5,24.8L26.1,57.9,115.5,6.2v18.6ZM26.1,80.1l89.4,33.1v18.6L26.1,80.1Z"/>
</svg>
